img/Phone.svg

<svg width="9" height="9" viewBox="0 0 9 9" fill="none" xmlns="http://www.w3.org/2000/svg">
<path d="M7.89491 6.51853C7.89491 6.65466 7.86466 6.79456 7.80037 6.93069C7.73609 7.06681 7.65291 7.19538 7.54325 7.31638C7.35797 7.52056 7.15378 7.66803 6.92313 7.76256C6.69625 7.85709 6.45047 7.90625 6.18578 7.90625C5.80009 7.90625 5.38794 7.8155 4.95309 7.63022C4.51825 7.44494 4.08341 7.19538 3.65234 6.88153C3.2175 6.56391 2.80534 6.21225 2.41209 5.82278C2.02262 5.42953 1.67097 5.01738 1.35712 4.58631C1.04706 4.15525 0.7975 3.72419 0.616 3.29691C0.4345 2.86584 0.34375 2.45369 0.34375 2.06044C0.34375 1.80331 0.389125 1.55753 0.479875 1.33066C0.570625 1.1 0.714313 0.88825 0.914719 0.699188C1.15672 0.460969 1.42141 0.34375 1.70122 0.34375C1.80709 0.34375 1.91297 0.366438 2.0075 0.411813C2.10581 0.457188 2.19278 0.52525 2.26084 0.623563L3.13809 1.86003C3.20616 1.95456 3.25531 2.04153 3.28934 2.12472C3.32338 2.20413 3.34228 2.28353 3.34228 2.35538C3.34228 2.44613 3.31581 2.53687 3.26288 2.62384C3.21372 2.71081 3.14188 2.80156 3.05113 2.89231L2.76375 3.19103C2.72216 3.23262 2.70325 3.28178 2.70325 3.34228C2.70325 3.37253 2.70703 3.399 2.71459 3.42925C2.72594 3.4595 2.73728 3.48219 2.74484 3.50487C2.81291 3.62966 2.93012 3.79225 3.0965 3.98888C3.26666 4.1855 3.44816 4.38591 3.64478 4.58631C3.84897 4.78672 4.04559 4.972 4.246 5.14216C4.44263 5.30853 4.60522 5.42197 4.73378 5.49003C4.75269 5.49759 4.77538 5.50894 4.80184 5.52028C4.83209 5.53163 4.86234 5.53541 4.89638 5.53541C4.96066 5.53541 5.00981 5.51272 5.05141 5.47113L5.33878 5.18753C5.43331 5.093 5.52406 5.02116 5.61103 4.97578C5.698 4.92284 5.78497 4.89638 5.8795 4.89638C5.95134 4.89638 6.02697 4.9115 6.11016 4.94553C6.19334 4.97956 6.28031 5.02872 6.37484 5.093L7.62644 5.98159C7.72475 6.04966 7.79281 6.12906 7.83441 6.22359C7.87222 6.31812 7.89491 6.41266 7.89491 6.51853Z" stroke="white" stroke-width="0.6875" stroke-miterlimit="10"/>
</svg>

<svg xmlns="http://www.w3.org/2000/svg" width="9" height="9" fill="none"><path stroke="#fff" stroke-miterlimit="10" stroke-width=".688" d="M7.895 6.519q.001.206-.095.412a1.705 1.705 0 0 1-.877.832 1.9 1.9 0 0 1-.737.143q-.58.002-1.233-.276a6.6 6.6 0 0 1-1.3-.748 11 11 0 0 1-1.24-1.06q-.585-.589-1.056-1.236a6.7 6.7 0 0 1-.741-1.29A3.2 3.2 0 0 1 .344 2.06q0-.387.136-.73Q.614.985.915.7 1.279.342 1.7.343a.7.7 0 0 1 .306.068.6.6 0 0 1 .254.212l.877 1.236q.101.141.151.265.052.122.053.23 0 .138-.08.269-.074.132-.21.268l-.288.299a.2.2 0 0 0-.06.151q0 .043.01.087.019.043.03.076.103.188.352.484.254.296.549.597c.204.2.4.386.601.556.197.167.36.28.488.348l.068.03q.044.016.094.015a.2.2 0 0 0 .155-.064l.288-.283a1.2 1.2 0 0 1 .272-.212.5.5 0 0 1 .269-.08q.106 0 .23.05t.265.147l1.251.889a.57.57 0 0 1 .208.242c.038.094.06.189.06.295Z"/></svg>
